!!!COM:	Martini, Johannes
!!!CDT:	~1440///-~1497//
!!!OTL:	Confitebor tibi
!!!AGN:	Motet
!!!SCT:	Mar2014
!!!SCA:	Mar2014
!!!voices:	2
**kern	**kern
*staff2	*staff1
*Ivox	*Ivox
*I"Tenor	*I"Superius
*I'T	*I'S
*>[A,B,C,D,E,F,G,H,I,J,K]	*>[A,B,C,D,E,F,G,H,I,J,K]
*>A	*>A
*clefGv2	*clefG2
*k[]	*k[]
*M2/1	*M2/1
*met(C)	*met(C)
=1-	=1-
!!LO:TX:Z=8:t=Choir 1
!!section: Quoniam audisti
!!!OMD: Quoniam audisti
2e\	2cc\
2e\	2cc\
2e\	2cc\
2e\	2cc\
=2	=2
1e	1cc
1e	1cc
=3	=3
2e\	2cc\
2e\	2cc\
1d	1dd
=4	=4
1e	2cc\
.	1b
2d\	.
2c\	[2a/
=5	=5
1B	2a/]
.	2g#i/
1Al	1al
=6||	=6||
*>B	*>B
!!section: In conspectu angelorum
!!!OMD: In conspectu angelorum
!!LO:TX:Z=8:t=Choir 2
1c	1cc
2e\	2cc\
2e\	2cc\
=7	=7
2e\	2cc\
2e\	2cc\
2e\	2cc\
2e\	2cc\
=8	=8
1c	1cc
2d\	2b\
2e\	2cc\
=9	=9
1f	1dd
1c	1cc
=10	=10
1r	1r
2e\	2cc\
2e\	2cc\
=11	=11
1e	1cc
1e	1cc
=12	=12
2e\	2cc\
2e\	2cc\
2e\	2cc\
2e\	2cc\
=13	=13
2e\	2cc\
2e\	2cc\
1e	1cc
=14	=14
1c	2r
.	2cc\
2e\	2cc\
2e\	2cc\
=15	=15
1e	1cc
1d	1dd
=16	=16
1e	2cc\
.	1b
2d\	.
2c\	[2a/
=17	=17
1B	2a/]
.	2g#i/
1Al	1al
=18||	=18||
*>C	*>C
!!section: Super misericordia
!!!OMD: Super misericordia
!!LO:TX:Z=8:t=Choir 1
1e	1cc
1e	1cc
=19	=19
1e	1cc
2e\	2cc\
2e\	2cc\
=20	=20
2e\	2cc\
2e\	2cc\
2e\	2cc\
2e\	2cc\
=21	=21
1e	1cc
1e	1cc
=22	=22
2e\	2cc\
2e\	2cc\
1e	1cc
=23	=23
2e\	2cc\
2.f\	2.dd\
4e\	4cc\
4d\	4b\
4c\	4a/
=24	=24
1d	1b
1c	1cc
=25	=25
1r	1r
2e\	2cc\
2e\	2cc\
=26	=26
1e	1cc
1e	1cc
=27	=27
2e\	2cc\
2e\	2cc\
2e\	2cc\
2e\	2cc\
=28	=28
2e\	2cc\
2e\	2cc\
1e	1cc
=29	=29
1e	1cc
1d	1b
=30	=30
2c\	2a/
2d\	2b\
2e\	2cc\
2f\	[2dd\
=31	=31
2.d\	4dd\]
.	4cc\
.	4b\
4c\	4a/
2B\	2g/
2A/	[2a/
=32	=32
1B	2a/]
.	2g#i/
1Al	1al
=33||	=33||
*>D	*>D
!!section: In quacumque die
!!!OMD: In quacumque die
!!LO:TX:Z=8:t=Choir 2
1e	1cc
2e\	2cc\
2e\	2cc\
=34	=34
2e\	2cc\
2e\	2cc\
1e	1cc
=35	=35
1e	1cc
2e\	2cc\
2e\	2cc\
=36	=36
2e\	2cc\
2e\	2cc\
1e	1cc
=37	=37
1d	1b
2e\	2cc\
2d\	[2dd\
=38	=38
1e	2dd\]
.	2cc#i\
1d	1dd
=39	=39
1r	1r
1e	1cc
=40	=40
2e\	2cc\
2e\	2cc\
1e	1cc
=41	=41
1e	1cc
2f\	2dd\
2e\	2cc\
=42	=42
2d\	2b\
2e\	1cc
1c	.
.	4b\
.	4a/
=43	=43
2B\	2g/
2A/	1a
1B	.
.	2g#i/
=44	=44
0Al	0al
=45||	=45||
*>E	*>E
!!section: Confiteantur tibi
!!!OMD: Confiteantur tibi
!!LO:TX:Z=8:t=Choir 1
2e\	2cc\
2e\	2cc\
2e\	2cc\
2e\	2cc\
=46	=46
1e	1cc
2e\	2cc\
2e\	2cc\
=47	=47
2e\	2cc\
2e\	2cc\
1e	1cc
=48	=48
2e\	2cc\
2e\	2cc\
1d	1b
=49	=49
2e\	2cc\
2.f\	2.dd\
4e\	4cc\
4d\	4b\
4c\	4a/
=50	=50
1d	1b
1c	1cc
=51	=51
1r	1r
2e\	2cc\
2e\	2cc\
=52	=52
2e\	2cc\
2e\	2cc\
1e	1cc
=53	=53
2e\	2cc\
2e\	2cc\
2e\	2cc\
2e\	2cc\
=54	=54
1e	1cc
1d	1dd
=55	=55
1e	2cc\
.	1b
2d\	.
2c\	[2a/
=56	=56
1B	2a/]
.	2g#i/
1Al	1al
=57||	=57||
*>F	*>F
!!section: Et cantent in viis
!!!OMD: Et cantent in viis
!!LO:TX:Z=8:t=Choir 2
1e	1cc
1e	1cc
=58	=58
1e	1cc
2d\	2b\
2e\	2cc\
=59	=59
2f\	2dd\
2e\	1cc
1d	.
.	2b\
=60	=60
1c	1cc
1r	1r
=61	=61
1e	1cc
2e\	2cc\
2e\	2cc\
=62	=62
2e\	2cc\
2e\	2cc\
1e	1cc
=63	=63
2f\	2dd\
2e\	2cc\
2d\	2b\
[2e\	[2cc\
=64	=64
2e\]	2cc\]
4d\	4b\
4c\	4a/
2B\	2g/
2A/	[2a/
=65	=65
1B	2a/]
.	2g#i/
1Al	1al
=66||	=66||
*>G	*>G
!!section: Quoniam excelsus
!!!OMD: Quoniam excelsus
!!LO:TX:Z=8:t=Choir 1
2e\	2cc\
2e\	2cc\
1e	1cc
=67	=67
1e	1cc
2e\	2cc\
2e\	2cc\
=68	=68
2e\	2cc\
2e\	2cc\
1e	1cc
=69	=69
2e\	2cc\
2e\	2cc\
2e\	2cc\
2e\	2cc\
=70	=70
1e	1cc
2e\	2cc\
[2f\	[2dd\
=71	=71
4f\]	4dd\]
4e\	4cc\
4d\	4b\
4c\	4a/
1d	1b
=72	=72
1c	1cc
1r	1r
=73	=73
1e	1cc
2e\	2cc\
[2e\	[2cc\
=74	=74
2e\]	2cc\]
2e\	2cc\
2e\	2cc\
2f\	[2dd\
=75	=75
2.d\	4dd\]
.	4cc\
.	4b\
4c\	4a/
2B\	2g/
2A/	[2a/
=76	=76
1B	2a/]
.	2g#i/
1Al	1al
=77||	=77||
*>H	*>H
!!LO:TX:Z=8:t=Choir 2
!!section: Si ambulavero
!!!OMD: Si ambulavero
1e	1cc
2e\	2cc\
2e\	2cc\
=78	=78
2e\	2cc\
2e\	2cc\
1e	1cc
=79	=79
1e	1cc
2e\	2cc\
2e\	2cc\
=80	=80
1e	1cc
2d\	2b\
2c\	2a/
=81	=81
2B\	2g/
2c\	2a/
1d	1b
=82	=82
1c	1cc
1d	1b
=83	=83
2.c\	2.a/
4d\	4b\
2e\	2cc\
2d\	[2dd\
=84	=84
1e	2dd\]
.	2cc#i\
1d	1dd
=85	=85
1r	1r
1e	1cc
=86	=86
2e\	2cc\
2e\	2cc\
1e	1cc
=87	=87
1e	1cc
1e	1cc
=88	=88
2e\	2cc\
2e\	2cc\
2e\	2cc\
2e\	2cc\
=89	=89
2e\	2cc\
2e\	2cc\
1e	1cc
=90	=90
2e\	2cc\
2e\	2cc\
1e	1cc
=91	=91
1e	1cc
2d\	2b\
2c\	[2a/
=92	=92
1B	2a/]
.	2g#i/
1A	1a
=93	=93
1r	1r
1e	1cc
=94	=94
2e\	2cc\
2e\	2cc\
2e\	2cc\
2e\	2cc\
=95	=95
1e	1cc
2f\	2dd\
2e\	2cc\
=96	=96
2d\	2b\
1e	1cc
4d\	4b\
4c\	4a/
=97	=97
2B\	2g/
2A/	1a
1B	.
.	2g#i/
=98	=98
0Al	0al
=99||	=99||
*>I	*>I
!!LO:TX:Z=8:t=Choir 1
!!section: Dominus retribuet
!!!OMD: Dominus retribuet
2e\	2cc\
2e\	2cc\
1e	1cc
=100	=100
1e	1cc
2e\	2cc\
2e\	2cc\
=101	=101
2e\	2cc\
2e\	2cc\
1e	1cc
=102	=102
1r	1r
2e\	2cc\
2e\	2cc\
=103	=103
1e	1cc
1e	1cc
=104	=104
2e\	2cc\
2e\	2cc\
2e\	2cc\
2e\	2cc\
=105	=105
1e	1cc
2d\	2b\
2e\	2cc\
=106	=106
2c\	2cc\
2.f\	2.dd\
4e\	4cc\
4d\	4b\
4c\	4a/
=107	=107
1d	1b
1c	1cc
=108	=108
1r	1r
2e\	2cc\
2e\	2cc\
=109	=109
1e	1cc
1e	1cc
=110	=110
2e\	2cc\
2e\	2cc\
2e\	2cc\
2e\	2cc\
=111	=111
1e	1cc
1d	1dd
=112	=112
2e\	2cc\
2c\	2a/
2d\	2b\
[2e\	[2cc\
=113	=113
2e\]	2cc\]
4d\	4b\
4c\	4a/
2B\	2g/
2A/	[2a/
=114	=114
1B	2a/]
.	2g#i/
1Al	1al
=115||	=115||
*>J	*>J
!!section: Gloria Patri
!!!OMD: Gloria Patri
!!LO:TX:Z=8:t=Choir 2
1e	1cc
2e\	2cc\
2e\	2cc\
=116	=116
1e	1cc
1d	2b\
.	[2dd\
=117	=117
2f\	2dd\]
2e\	1cc
1d	.
.	2b\
=118	=118
1c	1cc
1r	1r
=119	=119
1e	1cc
2e\	2cc\
2e\	2cc\
=120	=120
1e	1cc
1d	2b\
.	[2dd\
=121	=121
2.d\	4dd\]
.	4cc\
.	4b\
4c\	4a/
2B\	2g/
2A/	[2a/
=122	=122
1B	2a/]
.	2g#i/
1Al	1al
=123||	=123||
*>K	*>K
!!section: Sicut erat
!!!OMD: Sicut erat
!!LO:TX:Z=8:t=Choir 1
2e\	2cc\
2e\	2cc\
2e\	2cc\
2e\	2cc\
=124	=124
2e\	2cc\
2e\	2cc\
2e\	2cc\
2e\	2cc\
=125	=125
1e	1cc
1d	1b
=126	=126
2e\	2cc\
2.f\	2.dd\
4e\	4cc\
4d\	4b\
4c\	4a/
=127	=127
1d	1b
1c	1cc
=128	=128
1r	1r
2e\	2cc\
2e\	2cc\
=129	=129
2e\	2cc\
2e\	2cc\
1e	1cc
=130	=130
1d	1b
2e\	2cc\
2f\	[2dd\
=131	=131
2.d\	4dd\]
.	4cc\
.	4b\
4c\	4a/
2B\	2g/
2A/	[2a/
=132	=132
1B	2a/]
.	2g#i/
1Al	1al
==	==
*-	*-
!!!RDF**kern: l=long note in original notation
!!!RDF**kern: i=editorial accidental
!!!ENC:	Chris Gage 02-20-2014
!!!END:	2014/10/07/
!!!EED:	Jesse Rodin
!!!EEV:	2014/10/16/
!!!ONB:	Translated from MusicXML and edited on 2014/10/16/ by Craig Sapp
!!muse2ps: C^@{COM}^i2I150v85,150Q16
